icons/svg/warning_12.svg

<svg width="12" height="12" viewBox="0 0 12 12" fill="none" xmlns="http://www.w3.org/2000/svg">
<path fill-rule="evenodd" clip-rule="evenodd" d="M5.99819 3.99703C5.72219 3.99703 5.49819 4.22103 5.49819 4.49703V6.50303C5.49819 6.77903 5.72219 7.00303 5.99819 7.00303C6.27419 7.00303 6.49819 6.77903 6.49819 6.50303V4.49703C6.49819 4.22103 6.27419 3.99703 5.99819 3.99703ZM10.9483 9.78463C10.9123 9.84963 10.8023 10.0026 10.5643 10.0026H1.43429C1.19729 10.0026 1.08729 9.84963 1.05129 9.78463C0.977293 9.65163 0.982293 9.49663 1.06229 9.36863L5.58429 2.21163C5.66829 2.07863 5.82229 1.99963 5.99829 1.99963H6.00129C6.17729 1.99963 6.33129 2.07863 6.41529 2.21263L10.9363 9.36863C11.0173 9.49663 11.0213 9.65163 10.9483 9.78463ZM11.7823 8.83463L7.26029 1.67863C6.99329 1.25363 6.52229 0.999634 6.00129 0.999634H5.99829C5.47729 0.999634 5.00629 1.25363 4.73829 1.67863L0.217293 8.83463C-0.056707 9.26863 -0.072707 9.81763 0.175293 10.2666C0.429293 10.7276 0.900293 11.0026 1.43429 11.0026H10.5643C11.0993 11.0026 11.5703 10.7276 11.8233 10.2666C12.0723 9.81763 12.0553 9.26863 11.7823 8.83463ZM5.99819 8.00293C5.72219 8.00293 5.49819 8.22693 5.49819 8.50293C5.49819 8.77893 5.72219 9.00293 5.99819 9.00293C6.27419 9.00293 6.49819 8.77893 6.49819 8.50293C6.49819 8.22693 6.27419 8.00293 5.99819 8.00293Z" fill="#121212"/>
</svg>

<?xml version="1.0" encoding="utf-8"?>
<!-- Generator: Adobe Illustrator 23.0.2, SVG Export Plug-In . SVG Version: 6.00 Build 0)  -->
<svg version="1.1" id="Layer_1" xmlns="http://www.w3.org/2000/svg" xmlns:xlink="http://www.w3.org/1999/xlink" x="0px" y="0px"
	 viewBox="0 0 12 12" style="enable-background:new 0 0 12 12;" xml:space="preserve">
<style type="text/css">
	.st0{fill-rule:evenodd;clip-rule:evenodd;fill:#121212;}
</style>
<g>
	<path class="st0" d="M11.8,8.8L7.3,1.7C7,1.3,6.5,1,6,1h0C5.5,1,5,1.3,4.7,1.7L0.2,8.8c-0.3,0.4-0.3,1,0,1.4
		C0.4,10.7,0.9,11,1.4,11h9.1c0.5,0,1-0.3,1.3-0.7C12.1,9.8,12.1,9.3,11.8,8.8z M10.9,9.8c0,0.1-0.1,0.2-0.4,0.2H1.4
		c-0.2,0-0.3-0.2-0.4-0.2C1,9.7,1,9.5,1.1,9.4l4.5-7.2C5.7,2.1,5.8,2,6,2h0c0.2,0,0.3,0.1,0.4,0.2l4.5,7.2C11,9.5,11,9.7,10.9,9.8z"
		/>
	<path class="st0" d="M6,4C5.7,4,5.5,4.2,5.5,4.5v2C5.5,6.8,5.7,7,6,7s0.5-0.2,0.5-0.5v-2C6.5,4.2,6.3,4,6,4z"/>
	<circle class="st0" cx="6" cy="8.5" r="0.5"/>
</g>
</svg>
